X:72
T:Walsh's Polka 2
R:polka
M:2/4
L:1/8
K:A
|: A>c ef | ec dB | Ac ef | e2 e2 |
Ac ef | ec d>B | AF FE |1 A2 AB :|2 A2 Ac/e/ ||
|: fe cB | AF FE | A>B Ac | e2 ec/e/ |
fe cB | AF FE | A>B AE |1 A2 Ac/e/ :|2 A2 AB ||

